!!!!SEGMENT: pl-cz--iii-624--001-010_raszek-waclaw--missa-in-f-agnus-dei.krn
!!!cenid: 17xx:1068
!!!COM: Raszek, Wacław
!!!COM-rismid: pe30020314
!!!CDT: <1848->1848
!!!CNT:
!!!OPR: Missa in F
!!!OTL: Agnus Dei
!!!OMV: 010
!!!PDT:
!!!AGN: Sacred; Mass
!!!SMS-siglum: PL-CZ
!!!SMS-shelfmark: III-624
!!!SMS-shelfwork: 001-010 M
!!!SMS-variant:
!!!SMS-altvar:
!!!NIFC-rismid: 300001049
!!!URL-scan: http://repozytorium.nifc.pl/skany/pl-cz-nut--iii-624
!!!ONB-nifc: UWAGA: części Mszy: Kyrie, Gloria, Domine Deus, Cum sancto spiritu, Credo, Et incarnatus, Et resurrexit, Sanctus, Benedictus, Agnus Dei, Dona nobis. Uwaga: partia violino principale tylko w cz. Benedictus
**kern	**kern	**dynam	**kern	**dynam	**kern	**dynam	**kern	**text	**kern	**text	**kern	**text	**dynam	**kern	**text	**dynam	**kern	**kern	**kern	**kern
*part12	*part11	*part11	*part10	*part10	*part9	*part9	*part8	*part8	*part7	*part7	*part6	*part6	*	*part5	*part5	*	*part4	*part3	*part2	*part1
*staff12	*staff11	*	*staff10	*	*staff9	*	*staff8	*	*staff7	*	*staff6	*staff6	*	*staff5	*staff5	*	*staff4	*staff3	*staff2	*staff1
*I"Organo.	*I"Alto Viola.	*	*I"Violino Secondo.	*	*I"Violino Primo	*	*I"Baſso.	*	*I"Tenore.	*	*I"Alto.	*	*	*I"Canto.	*	*	*I"Cornu 2.do in F.	*I"Cornu Primo. in F.	*I"Flauto 2do	*I"Flauto Primo.
*I'org	*I'a-vla	*	*I'vl 2	*	*I'vl 1	*	*I'B	*	*I'T	*	*I'A	*	*	*I'S	*	*	*I'cor 2	*I'cor 1	*I'fl 2	*I'fl 1
*Iorgan	*Iviola	*	*Ivioln	*	*Ivioln	*	*Ibass	*	*Itenor	*	*Ialto	*	*	*Isoprn	*	*	*Icor	*Icor	*Iflt	*Iflt
*ICklav	*ICstr	*	*ICstr	*	*ICstr	*	*ICvox	*	*ICvox	*	*ICvox	*	*	*ICvox	*	*	*ICbras	*ICbras	*ICww	*ICww
*IGcont	*	*	*	*	*	*	*IGcoro	*	*IGcoro	*	*IGcoro	*	*	*IGcoro	*	*	*	*	*	*
*clefF4	*clefC3	*	*clefG2	*	*clefG2	*	*clefF4	*	*clefC4	*	*clefC3	*	*	*clefC1	*	*	*clefG2	*clefG2	*clefG2	*clefG2
*	*	*	*	*	*	*	*	*	*	*	*	*	*	*	*	*	*ITrd4c7	*ITrd4c7	*	*
*k[b-e-]	*k[b-]	*	*k[b-e-]	*	*k[b-e-]	*	*k[b-]	*	*k[b-]	*	*k[b- e-]	*	*	*k[b-e-]	*	*	*k[b-]	*k[b-]	*k[b-e-]	*k[b-]
*B-:	*	*	*B-:	*	*B-:	*	*	*	*	*	*	*	*	*B-:	*	*	*	*	*B-:	*
*M4/4	*M4/4	*	*M4/4	*	*M4/4	*	*M4/4	*	*M4/4	*	*M4/4	*	*	*M4/4	*	*	*M4/4	*M4/4	*M4/4	*M4/4
*met(c)	*met(c)	*	*met(c)	*	*met(c)	*	*met(c)	*	*met(c)	*	*met(c)	*	*	*met(c)	*	*	*met(c)	*met(c)	*met(c)	*met(c)
=1	=1	=1	=1	=1	=1	=1	=1	=1	=1	=1	=1	=1	=1	=1	=1	=1	=1	=1	=1	=1
*	*	*	*2\right	*	*	*	*	*	*	*	*	*	*	*	*	*	*	*	*	*
*	*	*	*tremolo	*	*	*	*	*	*	*	*	*	*	*	*	*	*	*	*	*
!	!LO:TX:t=P:problem:znaki: brak e-	!	!	!	!	!	!LO:TX:t=P:problem:znaki: brak E-	!	!LO:TX:t=P:problem:niekompletny początek części, brak klucza, brak e-	!	!LO:TX:t=P:problem:niekompletny początek części, brak klucza	!	!	!	!	!	!	!	!	!LO:TX:t=P:problem:znaki: brak ee-
!LO:TX:a:i:t=Adagio	!LO:TX:a:i:t=Adagio	!	!LO:TX:a:i:t=Adagio	!	!LO:TX:a:i:t=Adagio	!	!LO:TX:a:i:t=Adagio	!	!LO:TX:a:i:t=Adagio	!	!LO:TX:a:i:t=Adagio	!	!	!LO:TX:a:i:t=Adagio	!	!	!LO:TX:a:i:t=Agnus Tacet.	!LO:TX:a:i:t=Agnus Tacet.	!LO:TX:a:i:t=Adagio	!LO:TX:a:i:t=Adagio
0r	8g\L	.	8b-\L	p	4.dd\	.	00r	.	00r	.	00r	.	.	00r	.	.	1ryy	1ryy	0r	0r
!	!	!LO:DY:rj	!	!	!	!	!	!	!	!	!	!	!	!	!	!	!	!	!	!
.	8g\	p	8b-\	.	.	.	.	.	.	.	.	.	.	.	.	.	.	.	.	.
.	8g\	.	8b-\	.	.	.	.	.	.	.	.	.	.	.	.	.	.	.	.	.
.	8g\J	.	8b-\J	.	16bb-\LL	.	.	.	.	.	.	.	.	.	.	.	.	.	.	.
.	.	.	.	.	16gg\JJ	.	.	.	.	.	.	.	.	.	.	.	.	.	.	.
*	*2\right	*	*	*	*	*	*	*	*	*	*	*	*	*	*	*	*	*	*	*
*	*tremolo	*	*	*	*	*	*	*	*	*	*	*	*	*	*	*	*	*	*	*
!	!LO:TX:t=P:problem:2\right:global	!	!	!	!	!	!	!	!	!	!	!	!	!	!	!	!	!	!	!
.	.	.	.	.	16qqaa/	.	.	.	.	.	.	.	.	.	.	.	.	.	.	.
.	8g\L	.	8cc\L	.	16gg\LL	.	.	.	.	.	.	.	.	.	.	.	.	.	.	.
.	.	.	.	.	32ff#X\L	.	.	.	.	.	.	.	.	.	.	.	.	.	.	.
.	.	.	.	.	32gg\JJ	.	.	.	.	.	.	.	.	.	.	.	.	.	.	.
!	!	!	!	!	!	!LO:DY:a:t=Piano	!	!	!	!	!	!	!	!	!	!	!	!	!	!
.	8g\	.	8cc\	.	8ff#\J	p	.	.	.	.	.	.	.	.	.	.	.	.	.	.
.	8g\	.	8cc\	.	16r	.	.	.	.	.	.	.	.	.	.	.	.	.	.	.
.	.	.	.	.	16ff#\LL	.	.	.	.	.	.	.	.	.	.	.	.	.	.	.
.	8g\J	.	8cc\J	.	16ff#\	.	.	.	.	.	.	.	.	.	.	.	.	.	.	.
.	.	.	.	.	16gg\JJ	.	.	.	.	.	.	.	.	.	.	.	.	.	.	.
=2	=2	=2	=2	=2	=2	=2	=2	=2	=2	=2	=2	=2	=2	=2	=2	=2	=2	=2	=2	=2
.	8f#X\L	.	8a/L	.	16aa\LL	.	.	.	.	.	.	.	.	.	.	.	1ryy	1ryy	.	.
.	.	.	.	.	16ee-\	.	.	.	.	.	.	.	.	.	.	.	.	.	.	.
.	8f#X\	.	8a/	.	16dd\	.	.	.	.	.	.	.	.	.	.	.	.	.	.	.
.	.	.	.	.	16ee-\JJ	.	.	.	.	.	.	.	.	.	.	.	.	.	.	.
.	8f#X\	.	8a/	.	16ee-\LL	.	.	.	.	.	.	.	.	.	.	.	.	.	.	.
.	.	.	.	.	16dd\	.	.	.	.	.	.	.	.	.	.	.	.	.	.	.
.	8f#X\J	.	8a/J	.	16dd\	.	.	.	.	.	.	.	.	.	.	.	.	.	.	.
.	.	.	.	.	16cc\JJ	.	.	.	.	.	.	.	.	.	.	.	.	.	.	.
*	*	*	*Xtremolo	*	*	*	*	*	*	*	*	*	*	*	*	*	*	*	*	*
!	!	!	!	!	!LO:TX:t=P:problem:mixed beam	!	!	!	!	!	!	!	!	!	!	!	!	!	!	!
.	8g\L	.	8g/L	.	16b-\LL	.	.	.	.	.	.	.	.	.	.	.	.	.	.	.
.	.	.	.	.	16dd\	.	.	.	.	.	.	.	.	.	.	.	.	.	.	.
.	8g\	.	8g/	.	16f#X/	.	.	.	.	.	.	.	.	.	.	.	.	.	.	.
.	.	.	.	.	16g/JJ	.	.	.	.	.	.	.	.	.	.	.	.	.	.	.
.	8g\	.	8b-/	.	16b-\LL	.	.	.	.	.	.	.	.	.	.	.	.	.	.	.
.	.	.	.	.	16dd\	.	.	.	.	.	.	.	.	.	.	.	.	.	.	.
.	8g\J	.	8b-/J	.	16gg\	.	.	.	.	.	.	.	.	.	.	.	.	.	.	.
.	.	.	.	.	16aa\JJ	.	.	.	.	.	.	.	.	.	.	.	.	.	.	.
=3	=3	=3	=3	=3	=3	=3	=3	=3	=3	=3	=3	=3	=3	=3	=3	=3	=3	=3	=3	=3
!	!LO:ACC:color=grey	!	!	!	!	!	!	!	!	!	!	!	!	!	!	!	!	!	!	!
2r	8e-\L	.	8g/L	.	8bb-\L	.	.	.	.	.	.	.	.	.	.	.	1ryy	1ryy	2r	2r
.	8e-\	.	8g/	.	8cc#X\	.	.	.	.	.	.	.	.	.	.	.	.	.	.	.
.	8e-\	.	8g/	.	8cc#\	.	.	.	.	.	.	.	.	.	.	.	.	.	.	.
.	8e-\J	.	8g/J	.	8cc#\J	.	.	.	.	.	.	.	.	.	.	.	.	.	.	.
*	*	*	*	*	*2\right	*	*	*	*	*	*	*	*	*	*	*	*	*	*	*
*	*Xtremolo	*	*	*	*tremolo	*	*	*	*	*	*	*	*	*	*	*	*	*	*	*
!LO:TX:a:i:t=Pedale.	!	!	!	!	!LO:TX:t=P:problem:2\right:global	!	!	!	!	!	!	!	!	!	!	!	!	!	!	!LO:TX:a:i:t=Solo
8D/	16d\LL	.	16f#X/LL	.	8dd\L	.	.	.	.	.	.	.	.	.	.	.	.	.	16dd\LL	16ff#X\LL
.	16d\	.	16f#/	.	.	.	.	.	.	.	.	.	.	.	.	.	.	.	16dd\	16ff#\
8r	(16f#X\	.	(16a/	.	8dd\	.	.	.	.	.	.	.	.	.	.	.	.	.	16ff#X\	16aa\
.	16e\JJ)	.	16g/JJ)	.	.	.	.	.	.	.	.	.	.	.	.	.	.	.	16ee-\JJ	16gg\JJ
8D/	16d\LL	.	16f#/LL	.	8dd\	.	.	.	.	.	.	.	.	.	.	.	.	.	16dd\LL	16ff#\LL
.	16f#\	.	16a/	.	.	.	.	.	.	.	.	.	.	.	.	.	.	.	16ff#\	16aa\
8r	16a\	.	(16cc/	.	8dd\J	.	.	.	.	.	.	.	.	.	.	.	.	.	16aa\	16ccc\
.	16f#\JJ	.	16a/JJ)	.	.	.	.	.	.	.	.	.	.	.	.	.	.	.	16ff#\JJ	16bb-\JJ
*	*	*	*	*	*Xtremolo	*	*	*	*	*	*	*	*	*	*	*	*	*	*	*
=4	=4	=4	=4	=4	=4	=4	=4	=4	=4	=4	=4	=4	=4	=4	=4	=4	=4	=4	=4	=4
*	*	*	*^	*	*	*	*	*	*	*	*	*	*	*	*	*	*	*	*	*
8D/	16g\LL	.	16b-/LL	2ryy	.	8dd\L	.	.	.	.	.	.	.	.	.	.	.	1ryy	1ryy	8gg\L	8bb-\L
.	16g\	.	16b-/	.	.	.	.	.	.	.	.	.	.	.	.	.	.	.	.	.	.
8r	(16f#X\	.	(16a/	.	.	8dd\	.	.	.	.	.	.	.	.	.	.	.	.	.	16ff#X\L	16aa\L
.	16g\JJ)	.	16b-/JJ)	.	.	.	.	.	.	.	.	.	.	.	.	.	.	.	.	16gg\JJ	16bb-\JJ
8D/	16e\LL	.	16g/LL	.	.	8dd\	.	.	.	.	.	.	.	.	.	.	.	.	.	16bb-\LL	16gg\LL
.	16g\	.	16b-/	.	.	.	.	.	.	.	.	.	.	.	.	.	.	.	.	16gg\	16bb-\
8r	(16f#\	.	16a/	.	.	8dd\J	.	.	.	.	.	.	.	.	.	.	.	.	.	16ff#\	16aa\
.	16g\JJ)	.	16b-/JJ	.	.	.	.	.	.	.	.	.	.	.	.	.	.	.	.	16gg\JJ	16bb-\JJ
8D/L	8f#\L	.	8a/L	8ryy	.	8r	.	.	.	.	.	.	.	.	.	.	.	.	.	8ff#\L	8aa\L
!	!	!	!LO:SIC:v:n=2:s=8f#\L	!	!	!	!	!	!	!	!	!	!	!	!	!	!	!	!	!	!
8D/J	8d\J	.	8a/	8f\L	.	8dd\L	.	.	.	.	.	.	.	.	.	.	.	.	.	8ff#\	8aa\
!	!	!	!LO:SIC:v:n=2:s=8f#\J	!	!	!	!	!	!	!	!	!	!	!	!	!	!	!	!	!	!
16D/LL	16d/LL	.	8a/J	8f\J	.	8dd\	.	.	.	.	.	.	.	.	.	.	.	.	.	8ff#\J	8aa\J
16C/	16c/	.	.	.	.	.	.	.	.	.	.	.	.	.	.	.	.	.	.	.	.
16BB-/	16B-/	.	8r	8ryy	.	8dd\J	.	.	.	.	.	.	.	.	.	.	.	.	.	8r	8r
16AA/JJ	16A/JJ	.	.	.	.	.	.	.	.	.	.	.	.	.	.	.	.	.	.	.	.
*	*	*	*v	*v	*	*	*	*	*	*	*	*	*	*	*	*	*	*	*	*	*
!	!LO:LB:g=original	!	!	!	!	!LO:LB:g=original	!	!	!	!	!	!	!	!	!	!	!	!	!	!
=5	=5	=5	=5	=5	=5	=5	=5	=5	=5	=5	=5	=5	=5	=5	=5	=5	=5	=5	=5	=5
*	*	*	*tremolo	*	*	*	*	*	*	*	*	*	*	*	*	*	*	*	*2\right	*2\right
!LO:TX:t=P:problem:mixed beam	!LO:TX:t=P:problem:mixed beam	!	!	!LO:DY:a	!	!	!LO:TX:a:t=Tutti	!	!	!	!	!	!	!	!	!	!	!	!	!
8GG/L	8G/L	.	8b-/ 8d/L	f	16r	.	4.G\	A-	4.G/	A-	4.d\	A-	.	4.b-\	A-	.	1ryy	1ryy	[2gg\	2bb-\
!	!	!	!	!	!	!LO:DY:a:rj:t=fr	!	!	!	!	!	!	!	!	!	!	!	!	!	!
.	.	.	.	.	16dd\LL	f	.	.	.	.	.	.	.	.	.	.	.	.	.	.
!LO:TX:a:i:t=Tutti	!	!	!	!	!	!	!	!	!	!	!	!	!	!	!	!	!	!	!	!
8G\	8g\	f	8b-/ 8d/	.	16dd\	.	.	.	.	.	.	.	.	.	.	.	.	.	.	.
.	.	.	.	.	16dd\JJ	.	.	.	.	.	.	.	.	.	.	.	.	.	.	.
8G\	8g\	.	8b-/ 8d/	.	16dd\LL	.	.	.	.	.	.	.	.	.	.	.	.	.	.	.
.	.	.	.	.	16gg\	.	.	.	.	.	.	.	.	.	.	.	.	.	.	.
8G\J	8g\J	.	8b-/ 8d/J	.	16bb-\	.	8G\	-gnus	8G/	-gnus	8d\	-gnus	.	8b-\	-gnus	.	.	.	.	.
.	.	.	.	.	16gg\JJ	.	.	.	.	.	.	.	.	.	.	.	.	.	.	.
*2\right	*	*	*	*	*	*	*	*	*	*	*	*	*	*	*	*	*	*	*	*
*tremolo	*tremolo	*	*	*	*	*	*	*	*	*	*	*	*	*	*	*	*	*	*	*
8A\L	8a\L	.	8cc/ 8d/L	.	16gg\LL	.	4A\	De-	8G/	De-	4d\	De-	.	4cc\	De-	.	.	.	8gg\L]	4ccc\
!	!	!	!	!	!LO:ACC:color=grey	!	!	!	!	!	!	!	!	!	!	!	!	!	!	!
.	.	.	.	.	32ff#\L	.	.	.	.	.	.	.	.	.	.	.	.	.	.	.
.	.	.	.	.	32gg\J	.	.	.	.	.	.	.	.	.	.	.	.	.	.	.
8A\	8a\	.	8cc/ 8d/	.	16ff#\|	.	.	.	8F#X/	-i	.	.	.	.	.	.	.	.	8ff#X\J	.
.	.	.	.	.	16ff#\JJ|	.	.	.	.	.	.	.	.	.	.	.	.	.	.	.
!	!	!	!	!	!LO:N:vis=8	!	!	!	!	!	!	!	!	!	!	!	!	!	!	!
8A\	8a\	.	8cc/ 8d/	.	16r	.	8A\	-i	8r	.	8d\	-i	.	8cc\	-i	.	.	.	4r	4r
.	.	.	.	.	16ff#\LL	.	.	.	.	.	.	.	.	.	.	.	.	.	.	.
8A\J	8a\J	.	8cc/ 8d/J	.	16ff#\	.	8A\	qui	8F#/	qvi	8d\	qui	.	8cc\	qvi	.	.	.	.	.
.	.	.	.	.	16gg\JJ	.	.	.	.	.	.	.	.	.	.	.	.	.	.	.
!LO:LB:g=original	!	!	!LO:LB:g=original	!	!	!	!	!	!	!	!	!	!	!	!	!	!	!	!	!
=6	=6	=6	=6	=6	=6	=6	=6	=6	=6	=6	=6	=6	=6	=6	=6	=6	=6	=6	=6	=6
8F#X\L	8f#X\L	.	8a/L	.	16aa\LL	.	4F#X\	tol-	4A\	tol-	8d\L	tol-	.	4cc\	tol-	.	1ryy	1ryy	8r	8r
.	.	.	.	.	16ee-\	.	.	.	.	.	.	.	.	.	.	.	.	.	.	.
8F#X\	8f#X\	.	8a/	.	16dd\	.	.	.	.	.	8e-\J	.	.	.	.	.	.	.	8ee-\L	8aa\L
.	.	.	.	.	16ee-\JJ	.	.	.	.	.	.	.	.	.	.	.	.	.	.	.
8F#X\	8f#X\	.	8a/	.	16ee-\LL	.	8F#\	-lis	8A\	-lis	8e-\	-lis	.	8cc\	-lis	.	.	.	8dd\	8aa\
.	.	.	.	.	16dd\	.	.	.	.	.	.	.	.	.	.	.	.	.	.	.
8F#X\J	8f#X\J	.	8a/J	.	16dd\	.	8F#\	pec-	8A\	pec-	8e-\	pec-	.	8cc\	pec-	.	.	.	8cc\J	8aa\J
.	.	.	.	.	16cc\JJ	.	.	.	.	.	.	.	.	.	.	.	.	.	.	.
!	!	!	!	!	!	!	!	!	!	!	!	!	!	!	!	!	!	!	!LO:LB:g=original	!
8G\L	8g\L	.	8b-/ 8d/L	.	(16cc\LL	.	4G\	-[c]a-	4B-\	-ca-	4d\	-ca-	.	4b-\	-ca-	.	.	.	4b-\	2bb-\
.	.	.	.	.	16b-\)	.	.	.	.	.	.	.	.	.	.	.	.	.	.	.
8G\	8g\	.	8b-/ 8d/	.	16b-\|	.	.	.	.	.	.	.	.	.	.	.	.	.	.	.
.	.	.	.	.	16b-\JJ|	.	.	.	.	.	.	.	.	.	.	.	.	.	.	.
8G\	8g\	.	8b-/ 8d/	.	16b-\LL	.	4GG/	-ta	4B-\	-ta	4d\	-ta	.	4b-\	-ta	.	.	.	4gg\	.
.	.	.	.	.	(16dd\	.	.	.	.	.	.	.	.	.	.	.	.	.	.	.
8G\J	8g\J	.	8b-/ 8d/J	.	16gg\	.	.	.	.	.	.	.	.	.	.	.	.	.	.	.
.	.	.	.	.	16bb-\JJ)	.	.	.	.	.	.	.	.	.	.	.	.	.	.	.
*	*	*	*Xtremolo	*	*	*	*	*	*	*	*	*	*	*	*	*	*	*	*	*
=7	=7	=7	=7	=7	=7	=7	=7	=7	=7	=7	=7	=7	=7	=7	=7	=7	=7	=7	=7	=7
!	!LO:ACC:color=grey	!	!	!	!	!	!	!	!	!	!	!	!	!	!	!	!	!	!	!
8E-\L	8e-\L	.	8b-/L	.	16gg\LL	.	8r	.	8r	.	8r	.	.	8r	.	.	1ryy	1ryy	8r	8r
.	.	.	.	.	16gg\	.	.	.	.	.	.	.	.	.	.	.	.	.	.	.
*	*	*	*	*	*	*	*	*ij	*	*ij	*	*ij	*	*	*ij	*	*	*	*	*
!	!	!	!	!	!LO:ACC:color=grey	!	!LO:SIC:v:s=8E-\	!	!	!	!	!	!	!	!	!	!	!	!	!
8E-\	8e-\	.	8b-/	.	16ff#\	.	8E\	pec-	8B-\	pec-	8g\	pec-	.	8b-\	pec-	.	.	.	8cc#X\L	8gg\L
.	.	.	.	.	16gg\JJ	.	.	.	.	.	.	.	.	.	.	.	.	.	.	.
!	!	!	!	!	!	!	!LO:SIC:v:s=8E-\	!	!	!	!	!	!	!	!	!	!	!	!	!
8E-\	8e-\	.	8g/	.	16gg\LL	.	8E\	-ca-	8B-\	-ca-	8g\	-ca-	.	8b-\	-ca-	.	.	.	8cc#\	8gg\
.	.	.	.	.	16bb-\	.	.	.	.	.	.	.	.	.	.	.	.	.	.	.
!	!	!	!	!	!	!	!LO:SIC:v:s=8E-\	!	!	!	!	!	!	!	!	!	!	!	!	!
8E-\J	8e-\J	.	8g/J	.	16cc#X\	.	8E\	-ta	8G/	-ta	8g\	-ta	.	8cc#X\	-ta	.	.	.	8cc#\J	8gg\J
.	.	.	.	.	16cc#\JJ	.	.	.	.	.	.	.	.	.	.	.	.	.	.	.
*	*Xtremolo	*	*	*	*	*	*2\right	*Xij	*2\right	*Xij	*	*Xij	*	*2\right	*Xij	*	*	*	*	*
!	!	!	!LO:SIC:v:s=8f#/	!	!	!	!	!	!	!	!	!	!	!	!	!	!	!	!	!LO:LB:g=original
8D/L	8d\	.	8f/	.	(16cc#\LL	.	2D\	mun-	2A\	mun-	4f#X\	mun-	.	2dd\	mun-	.	.	.	8dd\	8ff#X\
.	.	.	.	.	16dd\)	.	.	.	.	.	.	.	.	.	.	.	.	.	.	.
8D/	8r	.	8r	.	16dd\	.	.	.	.	.	.	.	.	.	.	.	.	.	8r	8r
.	.	.	.	.	16dd\JJ	.	.	.	.	.	.	.	.	.	.	.	.	.	.	.
!	!	!	!LO:SIC:v:s=16f#/LL	!	!	!	!	!	!	!	!	!	!	!	!	!	!	!	!	!
8D/	16d\LL	.	(16f/LL	.	4dd\	.	.	.	.	.	4f#\	-di	.	.	.	.	.	.	16dd\LL	16ff#\LL
.	16f#X\	.	16a/)	.	.	.	.	.	.	.	.	.	.	.	.	.	.	.	16ff#X\	16aa\
8D/J	16f#\	.	(16a/	.	.	.	.	.	.	.	.	.	.	.	.	.	.	.	16ff#\	16aa\
.	16a\JJ	.	16cc/JJ)	.	.	.	.	.	.	.	.	.	.	.	.	.	.	.	16aa\JJ	16ccc\JJ
!	!	!	!	!	!	!	!	!	!	!	!	!	!	!LO:LB:g=original	!	!	!	!	!	!
=8	=8	=8	=8	=8	=8	=8	=8	=8	=8	=8	=8	=8	=8	=8	=8	=8	=8	=8	=8	=8
*	*	*	*	*	*	*	*	*	*	*	*2\right	*ij	*	*	*	*	*	*	*	*
8D/L	16g\LL	.	16b-/LL	.	8dd\L	.	2.D\	-di	2B-\	.	2g\	mun-	.	2dd\	.	.	1ryy	1ryy	4gg\	4bb-\
.	16d\	.	16b-/	.	.	.	.	.	.	.	.	.	.	.	.	.	.	.	.	.
8D/	16c\	.	(16a/	.	8dd\	.	.	.	.	.	.	.	.	.	.	.	.	.	.	.
.	16B-X\JJ	.	16g/JJ)	.	.	.	.	.	.	.	.	.	.	.	.	.	.	.	.	.
8D/	16B-/LL	.	16g/LL	.	8dd\	.	.	.	.	.	.	.	.	.	.	.	.	.	16r	16r
.	16B-/	.	16g/	.	.	.	.	.	.	.	.	.	.	.	.	.	.	.	16gg\LL	16bb-\LL
8D/J	16A/	.	(16f#X/	.	8dd\J	.	.	.	.	.	.	.	.	.	.	.	.	.	16ff#X\	16aa\
*Xtremolo	*	*	*	*	*	*	*	*	*	*	*	*	*	*	*	*	*	*	*	*
.	16B-/JJ	.	16g/JJ)	.	.	.	.	.	.	.	.	.	.	.	.	.	.	.	16gg\JJ	16bb-\JJ
8D/L	8A/L	.	8f#/L	.	8r	.	.	.	8A\	-di	8f#X\	-di	.	4dd\	-di	.	.	.	8ff#\L	8aa\L
*	*	*	*	*	*	*	*	*	*	*	*	*Xij	*	*	*	*	*	*	*	*
8D/J	8A/J	.	8f#/	.	8dd\L	.	.	.	8r	.	8r	.	.	.	.	.	.	.	8ff#\	8aa\
8D/L	8A/L	.	8f#/J	.	8dd\	.	4r	.	4r	.	4r	.	.	4r	.	.	.	.	8ff#\J	8aa\J
16D/L	(16d/L	.	8r	.	8dd\J	.	.	.	.	.	.	.	.	.	.	.	.	.	8r	8r
16C/JJ	16c/JJ)	.	.	.	.	.	.	.	.	.	.	.	.	.	.	.	.	.	.	.
!	!	!	!	!	!LO:LB:g=original	!	!	!	!	!	!LO:LB:g=original	!	!	!	!	!	!	!	!	!
=9	=9	=9	=9	=9	=9	=9	=9	=9	=9	=9	=9	=9	=9	=9	=9	=9	=9	=9	=9	=9
*tremolo	*tremolo	*	*	*	*	*	*	*	*	*	*	*	*	*	*	*	*	*	*	*
!	!	!LO:DY:a	!	!	!	!LO:DY:a:t=P.	!	!	!	!	!LO:TX:t=P:problem:uszkodzone źródło	!	!	!	!	!	!	!	!	!
8BB-/L	8B-/L	p	16r	.	16r	p	0r	.	0r	.	8ryy	.	.	8r	.	.	1ryy	1ryy	0r	0r
!	!	!	!	!LO:DY:a:t=p	!	!	!	!	!	!	!	!	!	!	!	!	!	!	!	!
.	.	.	16b-\LL	p	16dd'\LL	.	.	.	.	.	.	.	.	.	.	.	.	.	.	.
!	!	!	!	!	!	!	!	!	!	!	!	!	!LO:DY:a	!LO:TX:a:i:t=Dolce.	!	!	!	!	!	!
8BB-/	8B-/	.	16b-\	.	16dd'\	.	.	.	.	.	4b-\	mi-	p	4dd\	mi-	.	.	.	.	.
.	.	.	16b-\JJ	.	16dd'\JJ	.	.	.	.	.	.	.	.	.	.	.	.	.	.	.
!	!	!	!	!	!LO:TX:t=P:problem:zapis łuku niejednoznaczny	!	!	!	!	!	!	!	!	!	!	!	!	!	!	!
8BB-/	8B-/	.	(16b-\LL	.	(16dd\LL	.	.	.	.	.	.	.	.	.	.	.	.	.	.	.
.	.	.	16cc\)	.	16ee-X\	.	.	.	.	.	.	.	.	.	.	.	.	.	.	.
8BB-/J	8B-/J	.	(16cc\	.	16ee-\	.	.	.	.	.	16cc\LL	-se-	.	16ee-X\LL	-se-	.	.	.	.	.
.	.	.	16dd\JJ)	.	16ff\JJ)	.	.	.	.	.	16dd\JJ	.	.	16ff\JJ	.	.	.	.	.	.
.	.	.	8qqdd/	.	16qqff/	.	.	.	.	.	.	.	.	.	.	.	.	.	.	.
8F\L	8f\L	.	16cc/LL	.	(16ee-\LL	.	.	.	.	.	16cc\LL	-re-	.	16ee-\LL	-re-	.	.	.	.	.
.	.	.	32b-/L	.	32dd\L	.	.	.	.	.	32b-\L	.	.	32dd\L	.	.	.	.	.	.
.	.	.	32a/J	.	32cc\JJJ)	.	.	.	.	.	32a\JJ	.	.	32cc\J	.	.	.	.	.	.
8F\	8f\	.	16a/	.	16cc\LL|	.	.	.	.	.	8a\J	-re	.	16cc\JJ	.	.	.	.	.	.
.	.	.	16a/JJ	.	16cc\JJ|	.	.	.	.	.	.	.	.	8cc\	-re	.	.	.	.	.
!	!	!	!	!	!LO:TX:t=P:problem:zapis łuku niejednoznaczny	!	!	!	!	!	!	!	!	!	!	!	!	!	!	!
8F\	8f\	.	(16a/LL	.	(16cc\LL	.	.	.	.	.	4r	.	.	.	.	.	.	.	.	.
.	.	.	16b-/)	.	16dd\	.	.	.	.	.	.	.	.	16r	.	.	.	.	.	.
8F\J	8f\J	.	(16b-/	.	16dd\)	.	.	.	.	.	.	.	.	8r	.	.	.	.	.	.
.	.	.	16cc/JJ)	.	16ee-\JJ	.	.	.	.	.	.	.	.	.	.	.	.	.	.	.
=10	=10	=10	=10	=10	=10	=10	=10	=10	=10	=10	=10	=10	=10	=10	=10	=10	=10	=10	=10	=10
!	!	!	!LO:TX:t=P:problem:takt 10 oznaczony znakiem repetycji	!	!	!	!	!	!	!	!	!	!	!	!	!	!	!	!	!
8BB-/L	8B-/L	.	16ryy	.	16dd\LL	.	.	.	.	.	8r	.	.	8r	.	.	1ryy	1ryy	.	.
.	.	.	16b-\LLyy	.	16b-\	.	.	.	.	.	.	.	.	.	.	.	.	.	.	.
*	*	*	*	*	*	*	*	*	*	*	*	*ij	*	*	*	*	*	*	*	*
8BB-/	8B-/	.	16b-\yy	.	16dd\	.	.	.	.	.	4b-\	mi-	.	4dd\	mi-	.	.	.	.	.
.	.	.	16b-\JJyy	.	16dd\JJ	.	.	.	.	.	.	.	.	.	.	.	.	.	.	.
8BB-/	8B-/	.	(y16b-\LLyy	.	16dd\LL	.	.	.	.	.	.	.	.	.	.	.	.	.	.	.
.	.	.	16cc\)yy	.	16ee-\	.	.	.	.	.	.	.	.	.	.	.	.	.	.	.
8BB-/J	8B-/J	.	(y16cc\yy	.	16ee-\	.	.	.	.	.	16cc\LL	-se-	.	16ee-\LL	-se-	.	.	.	.	.
.	.	.	16dd\JJ)yy	.	16ff\JJ	.	.	.	.	.	16dd\JJ	.	.	16ff\JJ	.	.	.	.	.	.
.	.	.	8qqdd/yy	.	16qqff/	.	.	.	.	.	.	.	.	8qqff/	.	.	.	.	.	.
8F\L	8f\L	.	16cc/LLyy	.	16ee-\LL	.	.	.	.	.	16cc\LL	-re-	.	16ee-\LL	.	.	.	.	.	.
.	.	.	32b-/Lyy	.	32dd\L	.	.	.	.	.	32b-\L	.	.	32dd\L	.	.	.	.	.	.
.	.	.	32a/Jyy	.	32cc\J	.	.	.	.	.	32a\JJ	.	.	32cc\J	.	.	.	.	.	.
8F\	8f\	.	16a/yy	.	16cc\	.	.	.	.	.	8a\J	-re	.	16cc\JJ	.	.	.	.	.	.
.	.	.	16a/JJyy	.	16cc\JJ	.	.	.	.	.	.	.	.	8cc\	-re	.	.	.	.	.
8F\	8f\	.	(y16a/LLyy	.	16cc\LL	.	.	.	.	.	4r	.	.	.	.	.	.	.	.	.
.	.	.	16b-/)yy	.	16dd\	.	.	.	.	.	.	.	.	16r	.	.	.	.	.	.
8F\J	8f\J	.	(y16b-/yy	.	16dd\	.	.	.	.	.	.	.	.	8r	.	.	.	.	.	.
.	.	.	16cc/JJ)yy	.	16ee-\JJ	.	.	.	.	.	.	.	.	.	.	.	.	.	.	.
!	!	!	!	!	!	!	!LO:LB:g=original	!	!	!	!	!	!	!	!	!	!	!	!	!
=11	=11	=11	=11	=11	=11	=11	=11	=11	=11	=11	=11	=11	=11	=11	=11	=11	=11	=11	=11	=11
*Xtremolo	*Xtremolo	*	*tremolo	*	*	*	*	*	*	*	*	*	*	*	*	*	*	*	*	*
!	!	!LO:DY:a:t=for	!	!	!	!	!	!	!	!	!	!	!	!	!	!	!	!	!	!
8B-\L	8f\L	f	16b-/LL	f	16dd\LL	.	4B-X\	mi-	4B-\	mi-	4.f\	mi-	.	4dd\	mi-	.	1ryy	1ryy	2dd\	2bb-\
.	.	.	16b-/	.	16dd\	.	.	.	.	.	.	.	.	.	.	.	.	.	.	.
!	!	!	!	!	!LO:TX:a:i:t=T.	!	!	!	!	!	!	!	!	!	!	!	!	!	!	!
8B-\	8f\	.	16b-/	.	16dd\	.	.	.	.	.	.	.	.	.	.	.	.	.	.	.
.	.	.	16b-/	.	16dd\JJ	.	.	.	.	.	.	.	.	.	.	.	.	.	.	.
8G\	8g\	.	16b-/	.	16dd\LL	.	4G\	-se-	4B-\	-se-	.	.	.	4dd\	-se-	.	.	.	.	.
.	.	.	16b-/	.	16dd\	.	.	.	.	.	.	.	.	.	.	.	.	.	.	.
8G\J	8g\J	.	16b-/	.	16dd\	.	.	.	.	.	8f\	-se-	.	.	.	.	.	.	.	.
.	.	.	16b-/JJ	.	16dd\JJ	.	.	.	.	.	.	.	.	.	.	.	.	.	.	.
*tremolo	*tremolo	*	*	*	*	*	*	*	*	*	*	*	*	*	*	*	*	*	*	*
!	!LO:LB:g=original	!	!	!	!	!	!	!	!	!	!	!	!	!	!	!	!	!	!	!
8E-\L	8f\L	.	16g/LL	.	16dd\LL	.	4.E-X\	-re-	4.c\	-re-	4.g\	-re-	.	16dd\LL	-re-	.	.	.	8ee-X\	8gg\
.	.	.	16g/	.	16cc\	.	.	.	.	.	.	.	.	16cc\	.	.	.	.	.	.
8E-\	8f\	.	16g/	.	16bn\	.	.	.	.	.	.	.	.	16b-\	.	.	.	.	8r	8r
.	.	.	16g/	.	16cc\JJ	.	.	.	.	.	.	.	.	16cc\JJ	.	.	.	.	.	.
!	!	!	!	!	!	!	!	!	!	!	!	!	!	!	!	!	!	!	!LO:TX:t=P:problem:kreska taktowa na 8r	!
8E-\	8f\	.	16g/	.	16ff\LL	.	.	.	.	.	.	.	.	16ff\LL	.	.	.	.	8r	8r
.	.	.	16g/	.	16ee-\	.	.	.	.	.	.	.	.	16ee-\	.	.	.	.	.	.
8E-\J	8f\J	.	16g/	.	16dd\	.	8E-\	-re	8c\	-[re]	8e-\	-re	.	16dd\	.	.	.	.	8ee-\	8ccc\
.	.	.	16g/JJ	.	16cc\JJ	.	.	.	.	.	.	.	.	16cc\JJ	-re	.	.	.	.	.
*	*	*	*Xtremolo	*	*	*	*	*	*	*	*	*Xij	*	*	*	*	*	*	*	*
!	!	!	!LO:LB:g=original	!	!	!	!	!	!	!LO:LB:g=original	!	!	!	!LO:LB:g=original	!	!	!	!	!	!
=12	=12	=12	=12	=12	=12	=12	=12	=12	=12	=12	=12	=12	=12	=12	=12	=12	=12	=12	=12	=12
8F\L	8f\L	.	16d/LL	.	16b-/LL	.	2F\	no-	2F/	no-	(4d\	no-	.	(4b-\	no-	.	1ryy	1ryy	4dd\	4bb-\
.	.	.	16d/	.	16b-/	.	.	.	.	.	.	.	.	.	.	.	.	.	.	.
8F\	8f\	.	16d/	.	16b-/	.	.	.	.	.	.	.	.	.	.	.	.	.	.	.
.	.	.	16d/JJ	.	16b-/JJ	.	.	.	.	.	.	.	.	.	.	.	.	.	.	.
!	!	!	!	!	!LO:LB:g=original	!	!	!	!	!	!	!	!	!	!	!	!	!	!	!
8F\	8f\	.	16c/LL	.	16a/LL	.	.	.	.	.	4c\)	.	.	4a\)	.	.	.	.	4cc\	4aa\
.	.	.	16c/	.	16a/	.	.	.	.	.	.	.	.	.	.	.	.	.	.	.
8F\J	8f\J	.	16c/	.	16a/	.	.	.	.	.	.	.	.	.	.	.	.	.	.	.
.	.	.	16c/JJ	.	16a/JJ	.	.	.	.	.	.	.	.	.	.	.	.	.	.	.
*Xtremolo	*Xtremolo	*	*	*	*	*	*	*	*	*	*	*	*	*	*	*	*	*	*	*
!	!	!	!	!	!LO:N:vis=8	!	!	!	!	!	!	!	!	!	!	!	!	!	!	!
8BB-/	8B-/	.	4d/	.	4b-/	.	4BB-/	-bis	4F/	-bis	8d\	-bis	.	8b-\	-bis	.	.	.	8dd\	4bb-\
8r	8r	.	.	.	.	.	.	.	.	.	8r	.	.	8r	.	.	.	.	8r	.
8r	8r	.	8r	.	16r	.	4r	.	4r	.	4r	.	.	4r	.	.	.	.	4r	4r
!	!	!	!	!	!	!LO:DY:a:rj:t=p&colon;	!	!	!	!	!	!	!	!	!	!	!	!	!	!
.	.	.	.	.	16bb-\LL	p	.	.	.	.	.	.	.	.	.	.	.	.	.	.
!	!	!	!	!LO:DY:a:t=p.	!	!	!	!	!	!	!	!	!	!	!	!	!	!	!	!
8B-\	8c/	.	8g/	p	(32aa\L	.	.	.	.	.	.	.	.	.	.	.	.	.	.	.
.	.	.	.	.	32gg\	.	.	.	.	.	.	.	.	.	.	.	.	.	.	.
.	.	.	.	.	32ff\	.	.	.	.	.	.	.	.	.	.	.	.	.	.	.
.	.	.	.	.	32ee-\JJJ)	.	.	.	.	.	.	.	.	.	.	.	.	.	.	.
!LO:LB:g=original	!	!	!	!	!	!	!	!	!	!	!	!	!	!	!	!	!	!	!LO:LB:g=original	!
=13	=13	=13	=13	=13	=13	=13	=13	=13	=13	=13	=13	=13	=13	=13	=13	=13	=13	=13	=13	=13
8A\L	8c/L	.	4c/	.	8ff\L	.	1r	.	1r	.	1r	.	.	1r	.	.	1ryy	1ryy	1r	1r
8F\	8A/J	.	.	.	16gg\L	.	.	.	.	.	.	.	.	.	.	.	.	.	.	.
.	.	.	.	.	16ff\JJ	.	.	.	.	.	.	.	.	.	.	.	.	.	.	.
8G\	8G/L	.	8b-/L	.	16ff\LL	.	.	.	.	.	.	.	.	.	.	.	.	.	.	.
.	.	.	.	.	16ee-X\	.	.	.	.	.	.	.	.	.	.	.	.	.	.	.
!	!LO:ACC:color=grey	!	!	!	!	!	!	!	!	!	!	!	!	!	!	!	!	!	!	!
8E-\J	8e-/J	.	8g/J	.	16dd\	.	.	.	.	.	.	.	.	.	.	.	.	.	.	.
.	.	.	.	.	16cc\JJ	.	.	.	.	.	.	.	.	.	.	.	.	.	.	.
!LO:TX:t=P:problem:mixed beam	!	!	!	!	!	!	!	!	!	!	!	!	!	!	!	!	!	!	!	!
8D\L	8d\L	.	8f/L	.	16b-\LL	.	.	.	.	.	.	.	.	.	.	.	.	.	.	.
.	.	.	.	.	16ff\	.	.	.	.	.	.	.	.	.	.	.	.	.	.	.
8E-\	8e-\	.	8g/	.	32ee-\L	.	.	.	.	.	.	.	.	.	.	.	.	.	.	.
.	.	.	.	.	32dd\	.	.	.	.	.	.	.	.	.	.	.	.	.	.	.
.	.	.	.	.	32cc\	.	.	.	.	.	.	.	.	.	.	.	.	.	.	.
.	.	.	.	.	32b-\JJJ	.	.	.	.	.	.	.	.	.	.	.	.	.	.	.
!	!	!	!	!	!LO:TX:a:t=t	!	!	!	!	!	!	!	!	!	!	!	!	!	!	!
8F\	8f\	.	8b-/	.	4cc\	.	.	.	.	.	.	.	.	.	.	.	.	.	.	.
8FF/J	8e-\J	.	8g/J	.	.	.	.	.	.	.	.	.	.	.	.	.	.	.	.	.
=14	=14	=14	=14	=14	=14	=14	=14	=14	=14	=14	=14	=14	=14	=14	=14	=14	=14	=14	=14	=14
*tremolo	*	*	*	*	*	*	*	*	*	*	*	*	*	*	*	*	*	*	*	*
!	!	!LO:DY:a	!	!	!	!LO:DY:a:t=fr	!	!	!	!	!	!	!	!	!	!	!	!	!	!
8BB-/L	8d\L	f	8b-/L	f	16b-\LL	f	4.BB-/	a-	4.F/	A-	4.d\	A-	.	4.b-\	A-	.	1ryy	1ryy	4.dd\	4.bb-\
.	.	.	.	.	16b-\	.	.	.	.	.	.	.	.	.	.	.	.	.	.	.
8BB-/	8f\	.	8d/	.	16b-\	.	.	.	.	.	.	.	.	.	.	.	.	.	.	.
.	.	.	.	.	16b-\JJ	.	.	.	.	.	.	.	.	.	.	.	.	.	.	.
8BB-/	8f\	.	8d/	.	16b-\LL|	.	.	.	.	.	.	.	.	.	.	.	.	.	.	.
.	.	.	.	.	16b-\JJ|	.	.	.	.	.	.	.	.	.	.	.	.	.	.	.
!	!	!	!	!	!LO:TX:t=P:problem:zapis łuku niejednoznaczny	!	!	!	!	!	!	!	!	!	!	!	!	!	!	!
8BB-/J	8f\J	.	8d/J	.	(32ee-\LLL	.	8BB-/	-gnus	8F/	-gnus	8d\	-gnu[s]	.	8b-\	-gnus	.	.	.	8dd\	8bb-\
.	.	.	.	.	32dd\	.	.	.	.	.	.	.	.	.	.	.	.	.	.	.
.	.	.	.	.	32cc\	.	.	.	.	.	.	.	.	.	.	.	.	.	.	.
.	.	.	.	.	32b-\JJJ)	.	.	.	.	.	.	.	.	.	.	.	.	.	.	.
*	*tremolo	*	*tremolo	*	*	*	*	*	*	*	*	*	*	*	*	*	*	*	*	*
!	!	!	!	!	!	!	!	!	!	!	!LO:LB:g=original	!	!	!	!	!	!	!	!	!
8C/L	8f\L	.	8e-/L	.	16b-/LL	.	8C/	De-	8F/	De-	8e-\	De-	.	8b-\	De-	.	.	.	4ee-X\	8bb-\L
.	.	.	.	.	16a/	.	.	.	.	.	.	.	.	.	.	.	.	.	.	.
8C/	8f\	.	8e-/	.	16b-/	.	8C/	-i	8F/	-i	8e-\	-i	.	8a\	-i	.	.	.	.	8aa\J
.	.	.	.	.	16a/JJ	.	.	.	.	.	.	.	.	.	.	.	.	.	.	.
8C/	8f\	.	8e-/	.	16r	.	8r	.	8r	.	8r	.	.	8r	.	.	.	.	4r	8r
.	.	.	.	.	16a/LL	.	.	.	.	.	.	.	.	.	.	.	.	.	.	.
8C/J	8f\J	.	8e-/J	.	16a/	.	8C/	qui	8F/	qvi	8e-\	qui	.	16a\LL	qvi	.	.	.	.	16aa\LL
.	.	.	.	.	16b-/JJ	.	.	.	.	.	.	.	.	16b-\JJ	.	.	.	.	.	16bb-\JJ
=15	=15	=15	=15	=15	=15	=15	=15	=15	=15	=15	=15	=15	=15	=15	=15	=15	=15	=15	=15	=15
8A\L	8c/L	.	8f/L	.	16cc\LL	.	4A\	tol-	4c\	tol-	4f\	tol-	.	4cc\	tol-	.	1ryy	1ryy	4ee-\	4ccc\
.	.	.	.	.	16cc\	.	.	.	.	.	.	.	.	.	.	.	.	.	.	.
8A\	8c/	.	8f/	.	16dd\	.	.	.	.	.	.	.	.	.	.	.	.	.	.	.
.	.	.	.	.	16ee-\JJ	.	.	.	.	.	.	.	.	.	.	.	.	.	.	.
!	!	!	!	!	!LO:TX:t=P:problem:mixed beam	!	!	!	!	!	!	!	!	!	!	!	!	!	!	!LO:TX:t=P:problem:uszkodzone źródło
8A\	8c/	.	8f/	.	16e-/LL	.	8A\	-lis	8A\	-lis	8f\	-lis	.	8cc\	-lis	.	.	.	8r	4ryy
.	.	.	.	.	16cc\	.	.	.	.	.	.	.	.	.	.	.	.	.	.	.
8A\J	8c/J	.	8f/J	.	16dd\	.	8A\	pec-	8c\	pec-	8f\	pec-	.	8ee-\	pec-	.	.	.	8ee-\	.
.	.	.	.	.	16ee-\JJ	.	.	.	.	.	.	.	.	.	.	.	.	.	.	.
*Xtremolo	*Xtremolo	*	*	*	*	*	*	*	*	*	*	*	*	*	*	*	*	*	*	*
!	!	!	!	!	!	!	!	!	!	!	!	!	!	!	!	!	!	!	!	!LO:LB:g=original
8B-\L	8B-/L	.	8f/L	.	16ee-\LL	.	4B-\	-ca-	4B-\	-ca-	4f\	-ca-	.	16ee-\LL	-ca-	.	.	.	4dd\	4ddd\
.	.	.	.	.	16dd\	.	.	.	.	.	.	.	.	16dd\	.	.	.	.	.	.
8B-\	8B-/	.	8f/	.	16cc\	.	.	.	.	.	.	.	.	16cc\	.	.	.	.	.	.
.	.	.	.	.	16b-\JJ	.	.	.	.	.	.	.	.	16b-\JJ	.	.	.	.	.	.
!	!	!	!	!	!LO:LB:g=original	!	!	!	!	!	!	!	!	!	!	!	!	!	!	!
8d\	8d/	.	8f/	.	16b-/LL	.	8BB-/	-ta	4B-\	-ta	4f\	-ta	.	4b-\	-ta	.	.	.	4r	4bb-\
.	.	.	.	.	16b-/	.	.	.	.	.	.	.	.	.	.	.	.	.	.	.
8d\J	8d/J	.	8f/J	.	16a/	.	8F\	qui	.	.	.	.	.	.	.	.	.	.	.	.
.	.	.	.	.	16b-/JJ	.	.	.	.	.	.	.	.	.	.	.	.	.	.	.
=16	=16	=16	=16	=16	=16	=16	=16	=16	=16	=16	=16	=16	=16	=16	=16	=16	=16	=16	=16	=16
*tremolo	*tremolo	*	*	*	*	*	*	*	*	*	*	*	*	*	*	*	*	*	*	*
8A\L	8A/L	.	8f/L	.	16cc\LL	.	4A\	tol-	4c\	mun-	4f\	mun-	.	8cc\	mun-	.	1ryy	1ryy	1ff\	2ccc\
.	.	.	.	.	16cc\	.	.	.	.	.	.	.	.	.	.	.	.	.	.	.
8A\	8A/	.	8f/	.	16b-\	.	.	.	.	.	.	.	.	8cc\	-di	.	.	.	.	.
.	.	.	.	.	16cc\JJ	.	.	.	.	.	.	.	.	.	.	.	.	.	.	.
!	!	!	!	!	!	!	!	!	!	!	!	!	!	!LO:LB:g=original	!	!	!	!	!	!
!	!	!	!	!	!	!	!	!	!	!	!	!	!	!LO:TX:t=P:problem:niekompletny takt	!	!	!	!	!	!
8A\	8A/	.	8f/	.	16cc\LL	.	8A\	-lis	4c\	-di	4f\	-di	.	8cc\yy	[mi]-	.	.	.	.	.
.	.	.	.	.	16cc\	.	.	.	.	.	.	.	.	.	.	.	.	.	.	.
8A\J	8A/J	.	8f/J	.	16b-\	.	8A\	pec-	.	.	.	.	.	8cc\	-se-	.	.	.	.	.
.	.	.	.	.	16cc\JJ	.	.	.	.	.	.	.	.	.	.	.	.	.	.	.
!	!	!	!	!	!	!	!LO:LB:g=original	!	!	!	!	!	!	!	!	!	!	!	!	!
8B-\L	8B-/L	.	8f/L	.	16dd\LL	.	4B-\	-ca-	4B-\	mi-	4f\	mi-	.	4dd\	-re-	.	.	.	.	2ddd\
.	.	.	.	.	16dd\	.	.	.	.	.	.	.	.	.	.	.	.	.	.	.
8B-\	8B-/	.	8f/	.	16cc\	.	.	.	.	.	.	.	.	.	.	.	.	.	.	.
.	.	.	.	.	16dd\JJ	.	.	.	.	.	.	.	.	.	.	.	.	.	.	.
8B-\	8B-/	.	8f/	.	16dd\LL	.	4BB-/	-ta	4B-\	-se-	4f\	-ſe-	.	4dd\	-re	.	.	.	.	.
.	.	.	.	.	16dd\	.	.	.	.	.	.	.	.	.	.	.	.	.	.	.
8B-\J	8B-/J	.	8f/J	.	16cc\	.	.	.	.	.	.	.	.	.	.	.	.	.	.	.
.	.	.	.	.	16dd\JJ	.	.	.	.	.	.	.	.	.	.	.	.	.	.	.
*Xtremolo	*	*	*Xtremolo	*	*	*	*	*	*	*	*	*	*	*	*	*	*	*	*	*
=17	=17	=17	=17	=17	=17	=17	=17	=17	=17	=17	=17	=17	=17	=17	=17	=17	=17	=17	=17	=17
!LO:TX:t=P:problem:mixed beam	!	!	!	!	!	!	!	!	!	!	!	!	!	!	!	!	!	!	!	!
8F#X\L	8d\L	.	8a/L	.	16cc\LL	.	(4F#X\	mun-	4d\	-re-	4a\	-re-	.	(4cc\	no-	.	1ryy	1ryy	4aa\	4ccc\
.	.	.	.	.	16cc\	.	.	.	.	.	.	.	.	.	.	.	.	.	.	.
8F#\	8d\	.	8a/	.	16aa\	.	.	.	.	.	.	.	.	.	.	.	.	.	.	.
.	.	.	.	.	16cc\JJ	.	.	.	.	.	.	.	.	.	.	.	.	.	.	.
8G\	8d\	.	8g/	.	16b-\LL	.	4G\)	.	4d\	-re	4g\	-re	.	4.b-\)	.	.	.	.	4gg\	4bb-\
.	.	.	.	.	16b-\	.	.	.	.	.	.	.	.	.	.	.	.	.	.	.
8GG/J	8d\J	.	8g/J	.	16gg\	.	.	.	.	.	.	.	.	.	.	.	.	.	.	.
.	.	.	.	.	16b-\JJ	.	.	.	.	.	.	.	.	.	.	.	.	.	.	.
*	*Xtremolo	*	*	*	*	*	*	*	*	*	*	*	*	*	*	*	*	*	*	*
!LO:TX:t=P:problem:mixed beam	!LO:TX:t=P:problem:mixed beam	!	!	!	!	!	!	!	!	!	!	!	!	!	!	!	!	!	!	!
8D/L	8d\L	.	8g/L	.	8b-/L	.	4D\	-di	8d\	no-	8g\	no-	.	.	.	.	.	.	8gg\L	8bb-\L
8d\J	8D/J	.	8f#X/J	.	8a/J	.	.	.	8d\	-bis	8f#X\	-bis	.	8a\	-bis	.	.	.	8ff#X\J	8aa\J
16D/LL	16d/LL	.	4r	.	4r	.	4r	.	4r	.	4r	.	.	4r	.	.	.	.	4r	4r
16C/	16c/	.	.	.	.	.	.	.	.	.	.	.	.	.	.	.	.	.	.	.
16BB-/	16B-/	.	.	.	.	.	.	.	.	.	.	.	.	.	.	.	.	.	.	.
16AA/JJ	16A/JJ	.	.	.	.	.	.	.	.	.	.	.	.	.	.	.	.	.	.	.
!	!	!	!	!	!	!	!	!	!LO:PB:g=original	!	!	!	!	!	!	!	!	!	!	!
=18	=18	=18	=18	=18	=18	=18	=18	=18	=18	=18	=18	=18	=18	=18	=18	=18	=18	=18	=18	=18
*tremolo	*	*	*	*	*	*	*	*	*	*	*	*	*	*	*	*	*	*	*	*
!	!	!	!	!LO:DY:a:t=p.	!	!	!	!	!	!	!	!	!	!	!	!	!	!	!	!
8BB-/L	8G/L	.	8g/L	p	16r	.	2r	.	8r	.	0r	.	.	0r	.	.	1ryy	1ryy	0r	0r
!	!	!	!	!	!	!LO:DY:a:rj:t=p&colon;	!	!	!	!	!	!	!	!	!	!	!	!	!	!
.	.	.	.	.	16dd\LL	p	.	.	.	.	.	.	.	.	.	.	.	.	.	.
!	!	!	!	!	!	!	!	!	!LO:TX:a:i:t=Solo	!	!	!	!	!	!	!	!	!	!	!
8BB-/	8B-/	.	8g/	.	16dd\	.	.	.	4d\	a-	.	.	.	.	.	.	.	.	.	.
.	.	.	.	.	16dd\JJ	.	.	.	.	.	.	.	.	.	.	.	.	.	.	.
8BB-/	8B-/	.	8g/	.	16dd\LL	.	.	.	.	.	.	.	.	.	.	.	.	.	.	.
.	.	.	.	.	16dd\	.	.	.	.	.	.	.	.	.	.	.	.	.	.	.
8BB-/J	8B-/J	.	8g/J	.	16gg\	.	.	.	16g\LL	-gnus	.	.	.	.	.	.	.	.	.	.
.	.	.	.	.	16ff\JJ	.	.	.	16f\JJ	.	.	.	.	.	.	.	.	.	.	.
*	*tremolo	*	*	*	*	*	*	*	*	*	*	*	*	*	*	*	*	*	*	*
!	!	!	!LO:LB:g=original	!	!	!	!	!	!	!	!	!	!	!	!	!	!	!	!	!
8C/L	8c/L	.	16r	.	16ff\LL	.	8r	.	16f\LL	De-	.	.	.	.	.	.	.	.	.	.
.	.	.	16g/LL	.	16ee-X\	.	.	.	16e\	.	.	.	.	.	.	.	.	.	.	.
!	!	!	!	!	!	!	!LO:TX:a:i:t=Solo	!	!	!	!	!	!	!	!	!	!	!	!	!
8C/	8c/	.	16g/	.	16dd\	.	4G\	a-	16d\	.	.	.	.	.	.	.	.	.	.	.
.	.	.	16g/JJ	.	16ee-\JJ	.	.	.	16e-X\JJ	.	.	.	.	.	.	.	.	.	.	.
8C/	8c/	.	16g/LL	.	8ee-\L	.	.	.	4e-\	-i	.	.	.	.	.	.	.	.	.	.
.	.	.	16g/	.	.	.	.	.	.	.	.	.	.	.	.	.	.	.	.	.
8C/J	8c/J	.	16cc/	.	8ee-\J	.	16c\LL	-gnus	.	.	.	.	.	.	.	.	.	.	.	.
.	.	.	16cc/JJ	.	.	.	16B-\JJ	.	.	.	.	.	.	.	.	.	.	.	.	.
!LO:LB:g=original	!LO:LB:g=original	!	!	!	!	!	!	!	!	!	!	!	!	!	!	!	!	!	!	!
=19	=19	=19	=19	=19	=19	=19	=19	=19	=19	=19	=19	=19	=19	=19	=19	=19	=19	=19	=19	=19
!	!LO:SIC:v:s=8A/L	!	!	!	!	!	!	!	!	!	!	!	!	!	!	!	!	!	!	!
8F\L	8G/L	.	(16b-/LL	.	16r	.	16B-\LL	De-	8r	.	.	.	.	.	.	.	1ryy	1ryy	.	.
.	.	.	16a/)	.	16cc\LL	.	16A\	.	.	.	.	.	.	.	.	.	.	.	.	.
!	!LO:SIC:v:s=8A/	!	!	!	!	!	!	!	!	!	!	!	!	!	!	!	!	!	!	!
8F\	8G/	.	(16g/	.	16cc\	.	16G\	.	4c\	qui	.	.	.	.	.	.	.	.	.	.
.	.	.	16a/JJ)	.	16cc\JJ	.	16A\JJ	.	.	.	.	.	.	.	.	.	.	.	.	.
!	!LO:SIC:v:s=8A/	!	!	!	!	!	!	!	!	!	!	!	!	!	!	!	!	!	!	!
8F\	8G/	.	4a/	.	16cc\LL	.	4A\	-i	.	.	.	.	.	.	.	.	.	.	.	.
.	.	.	.	.	16cc\	.	.	.	.	.	.	.	.	.	.	.	.	.	.	.
!	!LO:SIC:v:s=8A/J	!	!	!	!	!	!	!	!	!	!	!	!	!	!	!	!	!	!	!
8F\J	8G/J	.	.	.	16ff\	.	.	.	(16f\LL	.	.	.	.	.	.	.	.	.	.	.
.	.	.	.	.	16ee-\JJ	.	.	.	16e-X\JJ)	.	.	.	.	.	.	.	.	.	.	.
!	!	!	!	!	!LO:LB:g=original	!	!	!	!	!	!	!	!	!	!	!	!	!	!	!
8BB-/L	8B-/L	.	16r	.	16ee-\LL	.	8r	.	16e-\LL	tol-	.	.	.	.	.	.	.	.	.	.
.	.	.	16f/LL	.	16dd\	.	.	.	16d\	.	.	.	.	.	.	.	.	.	.	.
8BB-/	8B-/	.	16f/	.	16cc\	.	4F\	qui	16c\	.	.	.	.	.	.	.	.	.	.	.
.	.	.	16f/JJ	.	16dd\JJ	.	.	.	16d\JJ	.	.	.	.	.	.	.	.	.	.	.
8BB-/	8B-/	.	16f/LL	.	4dd\	.	.	.	4d\	-lis	.	.	.	.	.	.	.	.	.	.
.	.	.	16f/	.	.	.	.	.	.	.	.	.	.	.	.	.	.	.	.	.
8BB-/J	8B-/J	.	16b-/	.	.	.	16B-\LL	.	.	.	.	.	.	.	.	.	.	.	.	.
.	.	.	16a/JJ	.	.	.	16A\JJ	.	.	.	.	.	.	.	.	.	.	.	.	.
*Xtremolo	*Xtremolo	*	*	*	*	*	*	*	*	*	*	*	*	*	*	*	*	*	*	*
=20	=20	=20	=20	=20	=20	=20	=20	=20	=20	=20	=20	=20	=20	=20	=20	=20	=20	=20	=20	=20
!	!LO:ACC:color=grey	!	!	!	!	!	!	!	!	!	!	!	!	!	!	!	!	!	!	!
!	!LO:TX:t=P:problem:mixed beam	!	!	!	!	!	!	!	!	!	!	!	!	!	!	!	!	!	!	!
8E-\L	8e-\L	.	(16a/LL	.	16r	.	16A\LL	tol-	8r	.	2r	.	.	2r	.	.	1ryy	1ryy	2r	2r
.	.	.	16g/)	.	16b-\LL	.	16G\	.	.	.	.	.	.	.	.	.	.	.	.	.
8E-\	8e-\	.	(16f/	.	16b-\	.	16F#X\	.	4B-\	pec-	.	.	.	.	.	.	.	.	.	.
.	.	.	16g/JJ)	.	16b-\JJ	.	16G\JJ	.	.	.	.	.	.	.	.	.	.	.	.	.
8E-\	8e-\	.	8g/L	.	16b-\LL	.	8G\	-lis	.	.	.	.	.	.	.	.	.	.	.	.
.	.	.	.	.	16b-\	.	.	.	.	.	.	.	.	.	.	.	.	.	.	.
8G\J	8G/J	.	8b-/J	.	16ee-\	.	8r	.	(16e-X\LL	.	.	.	.	.	.	.	.	.	.	.
.	.	.	.	.	16dd\JJ	.	.	.	16d\JJ)	.	.	.	.	.	.	.	.	.	.	.
!	!	!	!	!	!	!	!	!	!	!	!	!	!LO:DY:a	!	!	!LO:DY:a:rj	!	!	!	!
8G\L	8e-\L	.	8e-/L	.	16cc#X\LL	.	(4G\	pec-	4c#X\	-ca-	2a\	pec-	p	(4cc#X\	pec-	p	.	.	4cc#X\	2aa\
.	.	.	.	.	16a\	.	.	.	.	.	.	.	.	.	.	.	.	.	.	.
8G\	8e-\	.	8a/	.	16cc#\	.	.	.	.	.	.	.	.	.	.	.	.	.	.	.
.	.	.	.	.	16cc#\JJ	.	.	.	.	.	.	.	.	.	.	.	.	.	.	.
8F\	8f\	.	8a/	.	16dd\LL	.	4Fn\)	.	4A\	-ta	.	.	.	4dd\)	.	.	.	.	4dd\	.
.	.	.	.	.	16a\	.	.	.	.	.	.	.	.	.	.	.	.	.	.	.
8F\J	8f\J	.	8a/J	.	16dd\	.	.	.	.	.	.	.	.	.	.	.	.	.	.	.
.	.	.	.	.	16dd\JJ	.	.	.	.	.	.	.	.	.	.	.	.	.	.	.
=21	=21	=21	=21	=21	=21	=21	=21	=21	=21	=21	=21	=21	=21	=21	=21	=21	=21	=21	=21	=21
!	!	!	!	!	!LO:SIC:v:s=16een\LL	!	!	!	!	!	!	!	!	!LO:SIC:v:s=4een\	!	!	!	!	!LO:SIC:v:s=4een\	!
8C#X/L	8c#X\L	.	8a/L	.	16ee-\LL	.	4C#X/	-ca-	2A\	mun-	4a\	-ca-	.	4ee-\	-ca-	.	1ryy	1ryy	4ee-\	2aa\
.	.	.	.	.	16a\	.	.	.	.	.	.	.	.	.	.	.	.	.	.	.
!	!	!	!	!	!LO:SIC:v:s=16een\	!	!	!	!	!	!	!	!	!	!	!	!	!	!	!
8C#/	8c#\	.	8a/	.	16ee-\	.	.	.	.	.	.	.	.	.	.	.	.	.	.	.
!	!	!	!	!	!LO:SIC:v:s=16een\JJ	!	!	!	!	!	!	!	!	!	!	!	!	!	!	!
.	.	.	.	.	16ee-\JJ	.	.	.	.	.	.	.	.	.	.	.	.	.	.	.
8D/	8d\	.	8a/	.	16ff\LL	.	4D/	-ta	.	.	4a\	-ta	.	4ff\	-ta	.	.	.	4ffn\	.
.	.	.	.	.	16a\	.	.	.	.	.	.	.	.	.	.	.	.	.	.	.
8D/J	8d\J	.	8a/J	.	16ff\	.	.	.	.	.	.	.	.	.	.	.	.	.	.	.
.	.	.	.	.	16ff\JJ	.	.	.	.	.	.	.	.	.	.	.	.	.	.	.
!	!LO:TX:t=P:problem:mixed beam	!	!	!	!	!	!	!	!	!	!	!	!	!	!	!	!	!	!	!
*tremolo	*	*	*	*	*	*	*	*	*	*	*	*	*	*	*	*	*	*	*	*
8BB-/L	8f\L	.	8g#X/L	.	8dd\L	.	2BB-/	mun-	4F/	-di	2g#X\	m[un-	.	2dd\	mun-	.	.	.	2dd\	4gg#X\
8BB-/	8f\	.	8g#/	.	8dd\	.	.	.	.	.	.	.	.	.	.	.	.	.	.	.
*	*	*	*	*	*	*	*	*	*	*ij	*	*	*	*	*	*	*	*	*	*
8BB-/	8B-/	.	8g#/	.	8dd\	.	.	.	4d\	mun-	.	.	.	.	.	.	.	.	.	8r
8BB-/J	8B-/J	.	8g#/J	.	8dd\J	.	.	.	.	.	.	.	.	.	.	.	.	.	.	8gg#\
*Xtremolo	*	*	*	*	*	*	*	*	*	*	*	*	*	*	*	*	*	*	*	*
!	!	!	!LO:LB:g=original	!	!	!	!LO:LB:g=original	!	!	!	!LO:LB:g=original	!	!	!	!	!	!	!	!LO:LB:g=original	!
=22	=22	=22	=22	=22	=22	=22	=22	=22	=22	=22	=22	=22	=22	=22	=22	=22	=22	=22	=22	=22
!	!	!	!	!	!	!LO:DY:a:t=pianiſ&colon;	!	!	!	!	!	!	!	!	!	!	!	!	!	!
8AA/	8A/L	.	8.a/L	.	8.cc#X/L	pp	8AA/	-di	8e\	-di	8a\	-d]i	.	4cc#X\	-di	.	1ryy	1ryy	4cc#X\	4aa\
8r	8A/J	.	.	.	.	.	8r	.	8r	.	8r	.	.	.	.	.	.	.	.	.
!	!	!	!	!LO:DY:a:t=pianiſ	!	!	!	!	!	!	!	!	!	!	!	!	!	!	!	!
.	.	.	16c#X/Jk	pp	16a/Jk	.	.	.	.	.	.	.	.	.	.	.	.	.	.	.
!	!	!	!	!	!LO:TX:t=P:problem:zapis łuku niejednoznaczny	!	!	!	!	!	!	!	!	!	!	!	!	!	!	!
4r	8r	.	(16Bn/LL	.	(16a/LL	.	4r	.	4r	.	4r	.	.	4r	.	.	.	.	8r	8r
.	.	.	16c#/)	.	16g#X/	.	.	.	.	.	.	.	.	.	.	.	.	.	.	.
!	!	!LO:DY:a	!	!	!	!	!	!	!	!	!	!	!	!	!	!	!	!	!	!
.	8A/	p	(16B/	.	16g#/	.	.	.	.	.	.	.	.	.	.	.	.	.	8cc#\	8aa\
.	.	.	16c#/JJ)	.	16a/JJ)	.	.	.	.	.	.	.	.	.	.	.	.	.	.	.
*	*	*	*	*	*	*	*	*ij	*	*	*	*ij	*	*	*ij	*	*	*	*	*
8BB-/L	8B-/L	.	8d/L	.	8g#/L	.	2BB-/	mun-	2d\	mun-	2d\	mun-	.	2g#X\	mun-	.	.	.	2dd\	4gg#X\
8BB-/	8B-/	.	8d/	.	8g#/	.	.	.	.	.	.	.	.	.	.	.	.	.	.	.
8BB-/	8B-/	.	8d/	.	8g#/	.	.	.	.	.	.	.	.	.	.	.	.	.	.	8r
8BB-/J	8B-/J	.	8d/J	.	8g#/J	.	.	.	.	.	.	.	.	.	.	.	.	.	.	8gg#\
=23	=23	=23	=23	=23	=23	=23	=23	=23	=23	=23	=23	=23	=23	=23	=23	=23	=23	=23	=23	=23
!	!	!	!	!	!	!	!	!	!	!	!LO:SIC:v:s=2c#\	!	!	!	!	!	!	!	!	!
2AA/	2A;/	.	2c#X;/	.	2a/	.	4AA/	-di	4e\	-di	2c\	-di	.	2a;\	-di	.	1ryy	1ryy	2cc#X;\	2aa\
*	*	*	*	*	*	*	*	*Xij	*	*	*	*	*	*	*	*	*	*	*	*
.	.	.	.	.	.	.	4r	.	4r	.	.	.	.	.	.	.	.	.	.	.
!	!	!	!LO:TX:b:i:t=Seqve Dona	!	!	!	!	!	!	!	!LO:TX:b:i:t=Seqve Dona.	!	!	!	!	!	!	!	!LO:TX:b:i:t=Seqve Dona.	!
2r	2r	.	2r	.	2r	.	2r	.	2r	.	2r	.	.	2r	.	.	.	.	2r	2r
==	==	==	==	==	==	==	==	==	==	==	==	==	==	==	==	==	==	==	==	==
*-	*-	*-	*-	*-	*-	*-	*-	*-	*-	*-	*-	*-	*-	*-	*-	*-	*-	*-	*-	*-
!!!system-decoration: [(s1,s2)][(s3,s4)][(s5,s6,s7,s8)][(s9,s10,s11)]s12
!!!AIN: 1 alto 1 bass 2 cor 2 flt 1 organ 1 soprn 1 tenor 1 viola 2 violn
!!!ENC: Katarzyna Serwa
!!!END: 2020-10-02
!!!EED: Andrzej Borzym
!!!EST: 2022-01-16
!!!RDF**dynam: f = for.
!!!RDF**dynam: p = po
!!!RDF**kern: | = vertical stroke
